apps/scalable/game/game.svg

<svg xmlns="http://www.w3.org/2000/svg" style="isolation:isolate" width="256" height="256"><defs><filter id="a" width="270.648" height="254.338" x="-7.32" y="2.95" filterUnits="userSpaceOnUse"><feGaussianBlur xmlns="http://www.w3.org/2000/svg" in="SourceGraphic" stdDeviation="4.294"/><feOffset xmlns="http://www.w3.org/2000/svg" dy="4" result="pf_100_offsetBlur"/><feFlood xmlns="http://www.w3.org/2000/svg" flood-opacity=".4"/><feComposite xmlns="http://www.w3.org/2000/svg" in2="pf_100_offsetBlur" operator="in" result="pf_100_dropShadow"/><feBlend xmlns="http://www.w3.org/2000/svg" in="SourceGraphic" in2="pf_100_dropShadow"/></filter></defs><path fill="#CECABE" d="M165.685 11.947c74.055 0 84.639 10.557 84.639 84.544v59.251c0 73.986-10.584 84.543-84.639 84.543h-75.37c-74.055 0-84.639-10.557-84.639-84.543V96.491c0-73.987 10.584-84.544 84.639-84.544h75.37z" filter="url(#a)"/><path fill="#FFF" d="M5.676 126.116v29.626c0 73.986 10.584 84.543 84.639 84.543h75.37c74.055 0 84.639-10.557 84.639-84.543v-29.626H5.676z" opacity=".4"/><defs><filter id="b" width="61.59" height="45.59" x="157.21" y="153.21" filterUnits="userSpaceOnUse"><feGaussianBlur xmlns="http://www.w3.org/2000/svg" stdDeviation="1.2"/></filter></defs><path d="M204 156c-6.627 0-12 5.373-12 12s5.373 12 12 12 12-5.373 12-12-5.373-12-12-12zm-32 16c-6.627 0-12 5.373-12 12s5.373 12 12 12 12-5.373 12-12-5.373-12-12-12z" opacity=".2" filter="url(#b)"/><defs><filter id="c" width="53.59" height="53.59" x="37.2" y="149.21" filterUnits="userSpaceOnUse"><feGaussianBlur xmlns="http://www.w3.org/2000/svg" stdDeviation="1.2"/></filter></defs><path d="M60 152c-2.216 0-4 1.784-4 4v12H44c-2.216 0-4 1.784-4 4v8c0 2.216 1.784 4 4 4h12v12c0 2.216 1.784 4 4 4h8c2.216 0 4-1.784 4-4v-12h12c2.216 0 4-1.784 4-4v-8c0-2.216-1.784-4-4-4H72v-12c0-2.216-1.784-4-4-4h-8z" opacity=".2" filter="url(#c)"/><path fill="#5D5D5D" d="M60 150c-2.216 0-4 1.784-4 4v12H44c-2.216 0-4 1.784-4 4v8c0 2.216 1.784 4 4 4h12v12c0 2.216 1.784 4 4 4h8c2.216 0 4-1.784 4-4v-12h12c2.216 0 4-1.784 4-4v-8c0-2.216-1.784-4-4-4H72v-12c0-2.216-1.784-4-4-4h-8z"/><path fill="#F22C42" d="M204 154a11.996 11.996 0 0 0-8.485 3.515 11.996 11.996 0 0 0 0 16.97 11.996 11.996 0 0 0 16.97 0 11.996 11.996 0 0 0 0-16.97A11.996 11.996 0 0 0 204 154zm-32 16a11.996 11.996 0 0 0-8.485 3.515 11.996 11.996 0 0 0 0 16.97 11.996 11.996 0 0 0 16.97 0 11.996 11.996 0 0 0 0-16.97A11.996 11.996 0 0 0 172 170z"/><path fill="#AEA795" d="M106 206c-1.108 0-2 .892-2 2v4c0 1.108.892 2 2 2h12c1.108 0 2-.892 2-2v-4c0-1.108-.892-2-2-2h-12zm32 0c-1.108 0-2 .892-2 2v4c0 1.108.892 2 2 2h12c1.108 0 2-.892 2-2v-4c0-1.108-.892-2-2-2h-12z" opacity=".5"/><path fill="#5D5D5D" d="M56 46h144v80H56z"/><g opacity=".4"><linearGradient id="d" x1=".517" x2=".517" y2="1"><stop offset="0%" stop-color="#fff"/><stop offset="12.5%" stop-opacity=".098" stop-color="#fff"/><stop offset="92.5%" stop-opacity=".098"/><stop offset="100%" stop-opacity=".498"/></linearGradient><path fill="none" stroke="url(#d)" stroke-linecap="round" stroke-linejoin="round" stroke-width="4.077" d="M165.685 11.947c74.055 0 84.639 10.557 84.639 84.544v59.251c0 73.986-10.584 84.543-84.639 84.543h-75.37c-74.055 0-84.639-10.557-84.639-84.543V96.491c0-73.987 10.584-84.544 84.639-84.544h75.37z" vector-effect="non-scaling-stroke"/></g></svg>

<svg xmlns="http://www.w3.org/2000/svg" style="isolation:isolate" width="256" height="256" viewBox="0 0 256 256">
 <defs>
  <filter id="uWHw1ncxMW7z3X8Vus4pSH1LcsMfGUfw" width="270.648" height="254.338" x="-7.32" y="2.95" filterUnits="userSpaceOnUse">
   <feGaussianBlur xmlns="http://www.w3.org/2000/svg" in="SourceGraphic" stdDeviation="4.294"/>
   <feOffset xmlns="http://www.w3.org/2000/svg" dx="0" dy="4" result="pf_100_offsetBlur"/>
   <feFlood xmlns="http://www.w3.org/2000/svg" flood-opacity=".4"/>
   <feComposite xmlns="http://www.w3.org/2000/svg" in2="pf_100_offsetBlur" operator="in" result="pf_100_dropShadow"/>
   <feBlend xmlns="http://www.w3.org/2000/svg" in="SourceGraphic" in2="pf_100_dropShadow" mode="normal"/>
  </filter>
 </defs>
 <g filter="url(#uWHw1ncxMW7z3X8Vus4pSH1LcsMfGUfw)">
  <path fill="#CECABE" d="M 165.685 11.947 C 239.74 11.947 250.324 22.504 250.324 96.491 L 250.324 155.742 C 250.324 229.728 239.74 240.285 165.685 240.285 L 90.315 240.285 C 16.26 240.285 5.676 229.728 5.676 155.742 L 5.676 96.491 C 5.676 22.504 16.26 11.947 90.315 11.947 L 165.685 11.947 Z"/>
 </g>
 <g opacity=".4">
  <path fill="#FFFFFF" d="M 5.676 126.116 L 5.676 155.742 C 5.676 229.728 16.26 240.285 90.315 240.285 L 165.685 240.285 C 239.74 240.285 250.324 229.728 250.324 155.742 L 250.324 126.116 L 5.676 126.116 Z"/>
 </g>
 <g>
  <defs>
   <filter id="iKKe6CDY6fVZvHVYLDvWmsVgXNjenJVK" width="61.59" height="45.59" x="157.21" y="153.21" filterUnits="userSpaceOnUse">
    <feGaussianBlur xmlns="http://www.w3.org/2000/svg" stdDeviation="1.2"/>
   </filter>
  </defs>
  <g opacity=".2" filter="url(#iKKe6CDY6fVZvHVYLDvWmsVgXNjenJVK)">
   <path d="M 204 156 C 197.373 156 192 161.373 192 168 C 192 174.627 197.373 180 204 180 C 210.627 180 216 174.627 216 168 C 216 161.373 210.627 156 204 156 Z M 172 172 C 165.373 172 160 177.373 160 184 C 160 190.627 165.373 196 172 196 C 178.627 196 184 190.627 184 184 C 184 177.373 178.627 172 172 172 Z"/>
  </g>
  <defs>
   <filter id="LFzDqOV6LPnQYVSeiGgjZ0KN6My8Oesn" width="53.59" height="53.59" x="37.2" y="149.21" filterUnits="userSpaceOnUse">
    <feGaussianBlur xmlns="http://www.w3.org/2000/svg" stdDeviation="1.2"/>
   </filter>
  </defs>
  <g opacity=".2" filter="url(#LFzDqOV6LPnQYVSeiGgjZ0KN6My8Oesn)">
   <path d="M 60 152 C 57.784 152 56 153.784 56 156 L 56 168 L 44 168 C 41.784 168 40 169.784 40 172 L 40 180 C 40 182.216 41.784 184 44 184 L 56 184 L 56 196 C 56 198.216 57.784 200 60 200 L 68 200 C 70.216 200 72 198.216 72 196 L 72 184 L 84 184 C 86.216 184 88 182.216 88 180 L 88 172 C 88 169.784 86.216 168 84 168 L 72 168 L 72 156 C 72 153.784 70.216 152 68 152 L 60 152 Z"/>
  </g>
  <path fill="#5D5D5D" d="M 60 150 C 57.784 150 56 151.784 56 154 L 56 166 L 44 166 C 41.784 166 40 167.784 40 170 L 40 178 C 40 180.216 41.784 182 44 182 L 56 182 L 56 194 C 56 196.216 57.784 198 60 198 L 68 198 C 70.216 198 72 196.216 72 194 L 72 182 L 84 182 C 86.216 182 88 180.216 88 178 L 88 170 C 88 167.784 86.216 166 84 166 L 72 166 L 72 154 C 72 151.784 70.216 150 68 150 L 60 150 Z"/>
  <path fill="#F22C42" d="M 204 154 C 200.817 154 197.765 155.264 195.515 157.515 C 193.264 159.765 192 162.817 192 166 C 192 169.183 193.264 172.235 195.515 174.485 C 197.765 176.736 200.817 178 204 178 C 207.183 178 210.235 176.736 212.485 174.485 C 214.736 172.235 216 169.183 216 166 C 216 162.817 214.736 159.765 212.485 157.515 C 210.235 155.264 207.183 154 204 154 Z M 172 170 C 168.817 170 165.765 171.264 163.515 173.515 C 161.264 175.765 160 178.817 160 182 C 160 185.183 161.264 188.235 163.515 190.485 C 165.765 192.736 168.817 194 172 194 C 175.183 194 178.235 192.736 180.485 190.485 C 182.736 188.235 184 185.183 184 182 C 184 178.817 182.736 175.765 180.485 173.515 C 178.235 171.264 175.183 170 172 170 Z"/>
  <g opacity=".5">
   <path fill="#AEA795" d="M 106 206 C 104.892 206 104 206.892 104 208 L 104 212 C 104 213.108 104.892 214 106 214 L 118 214 C 119.108 214 120 213.108 120 212 L 120 208 C 120 206.892 119.108 206 118 206 L 106 206 Z M 138 206 C 136.892 206 136 206.892 136 208 L 136 212 C 136 213.108 136.892 214 138 214 L 150 214 C 151.108 214 152 213.108 152 212 L 152 208 C 152 206.892 151.108 206 150 206 L 138 206 Z"/>
  </g>
  <rect fill="#5D5D5D" width="144" height="80" x="56" y="46" transform="matrix(1,0,0,1,0,0)"/>
 </g>
 <g opacity=".4">
  <linearGradient id="_lgradient_180" x1=".517" x2=".517" y1="0" y2="1">
   <stop offset="0%" style="stop-color:rgb(255,255,255)"/>
   <stop offset="12.5%" stop-opacity=".098" style="stop-color:rgb(255,255,255)"/>
   <stop offset="92.5%" stop-opacity=".098" style="stop-color:rgb(0,0,0)"/>
   <stop offset="100%" stop-opacity=".498" style="stop-color:rgb(0,0,0)"/>
  </linearGradient>
  <path fill="none" stroke="url(#_lgradient_180)" stroke-linecap="round" stroke-linejoin="round" stroke-width="4.077" d="M 165.685 11.947 C 239.74 11.947 250.324 22.504 250.324 96.491 L 250.324 155.742 C 250.324 229.728 239.74 240.285 165.685 240.285 L 90.315 240.285 C 16.26 240.285 5.676 229.728 5.676 155.742 L 5.676 96.491 C 5.676 22.504 16.26 11.947 90.315 11.947 L 165.685 11.947 Z" vector-effect="non-scaling-stroke"/>
 </g>
</svg>
